img/metallicheskaya-krovlya.svg

<svg width="115" height="115" viewBox="0 0 115 115" fill="none" xmlns="http://www.w3.org/2000/svg">
<g filter="url(#filter0_i_1836_1380)">
<rect width="115" height="115" rx="15" fill="#F8F4F4"/>
</g>
<g filter="url(#filter1_d_1836_1380)">
<rect x="62.6982" y="20.2324" width="7.98611" height="20.6207" fill="#707070"/>
</g>
<g filter="url(#filter2_d_1836_1380)">
<path d="M51.8557 87.646L4 81.6977L35.2179 32.9219H78.6885L106.622 76.5626L59.9028 72.577L51.8557 87.646Z" fill="#D22E26"/>
</g>
<path d="M106.622 76.5426L59.1045 73.7667L78.6557 32.9219L106.622 76.5426Z" fill="#C8102E"/>
<g filter="url(#filter3_d_1836_1380)">
<path fill-rule="evenodd" clip-rule="evenodd" d="M30.9584 18.451C30.5929 17.8635 29.775 17.8481 29.3794 18.4158C26.7877 22.1352 18.8314 34.3859 16.1389 48.1854C15.8855 49.1051 15.7232 50.0622 15.6623 51.0465C15.6529 51.1152 15.6436 51.184 15.6345 51.2527C15.5453 51.9233 15.5675 52.5574 15.6883 53.1547C16.3154 60.3853 22.4242 66.0598 29.8675 66.0598C37.4038 66.0598 43.5721 60.2425 44.0676 52.8827C44.0883 52.6802 44.0989 52.4734 44.0989 52.2623C44.0989 52.2144 44.0987 52.1664 44.0984 52.1183C44.0992 52.0542 44.0997 51.99 44.0997 51.9257C44.0997 51.4486 44.0759 50.977 44.0294 50.512C43.1277 38.7727 33.7123 22.8783 30.9584 18.451Z" fill="white"/>
</g>
<g filter="url(#filter4_d_1836_1380)">
<path fill-rule="evenodd" clip-rule="evenodd" d="M82.4952 62.0789C82.1323 61.4898 81.3136 61.4671 80.9219 62.0374C78.7857 65.1471 73.0796 74.1542 71.1071 84.2603C70.9148 84.9573 70.7918 85.6826 70.7459 86.4287C70.7389 86.4797 70.732 86.5308 70.7252 86.5818C70.6579 87.0881 70.6746 87.5669 70.7655 88.0179C71.2387 93.4857 75.8578 97.7771 81.4861 97.7771C87.1822 97.7771 91.8445 93.3818 92.222 87.8201C92.2381 87.6651 92.2463 87.5068 92.2463 87.3451C92.2463 87.3054 92.2461 87.2656 92.2458 87.2257C92.2464 87.1808 92.2466 87.1358 92.2466 87.0907C92.2466 86.7333 92.229 86.3799 92.1944 86.0314C91.5358 77.4002 84.7831 65.7927 82.4952 62.0789Z" fill="white"/>
</g>
<defs>
<filter id="filter0_i_1836_1380" x="0" y="0" width="117" height="117" filterUnits="userSpaceOnUse" color-interpolation-filters="sRGB">
<feFlood flood-opacity="0" result="BackgroundImageFix"/>
<feBlend mode="normal" in="SourceGraphic" in2="BackgroundImageFix" result="shape"/>
<feColorMatrix in="SourceAlpha" type="matrix" values="0 0 0 0 0 0 0 0 0 0 0 0 0 0 0 0 0 0 127 0" result="hardAlpha"/>
<feOffset dx="2" dy="2"/>
<feGaussianBlur stdDeviation="3"/>
<feComposite in2="hardAlpha" operator="arithmetic" k2="-1" k3="1"/>
<feColorMatrix type="matrix" values="0 0 0 0 0 0 0 0 0 0 0 0 0 0 0 0 0 0 0.05 0"/>
<feBlend mode="normal" in2="shape" result="effect1_innerShadow_1836_1380"/>
</filter>
<filter id="filter1_d_1836_1380" x="59.6982" y="19.2324" width="13.9863" height="26.6211" filterUnits="userSpaceOnUse" color-interpolation-filters="sRGB">
<feFlood flood-opacity="0" result="BackgroundImageFix"/>
<feColorMatrix in="SourceAlpha" type="matrix" values="0 0 0 0 0 0 0 0 0 0 0 0 0 0 0 0 0 0 127 0" result="hardAlpha"/>
<feOffset dy="2"/>
<feGaussianBlur stdDeviation="1.5"/>
<feComposite in2="hardAlpha" operator="out"/>
<feColorMatrix type="matrix" values="0 0 0 0 0 0 0 0 0 0 0 0 0 0 0 0 0 0 0.25 0"/>
<feBlend mode="normal" in2="BackgroundImageFix" result="effect1_dropShadow_1836_1380"/>
<feBlend mode="normal" in="SourceGraphic" in2="effect1_dropShadow_1836_1380" result="shape"/>
</filter>
<filter id="filter2_d_1836_1380" x="1" y="31.9219" width="108.622" height="60.7246" filterUnits="userSpaceOnUse" color-interpolation-filters="sRGB">
<feFlood flood-opacity="0" result="BackgroundImageFix"/>
<feColorMatrix in="SourceAlpha" type="matrix" values="0 0 0 0 0 0 0 0 0 0 0 0 0 0 0 0 0 0 127 0" result="hardAlpha"/>
<feOffset dy="2"/>
<feGaussianBlur stdDeviation="1.5"/>
<feComposite in2="hardAlpha" operator="out"/>
<feColorMatrix type="matrix" values="0 0 0 0 0 0 0 0 0 0 0 0 0 0 0 0 0 0 0.25 0"/>
<feBlend mode="normal" in2="BackgroundImageFix" result="effect1_dropShadow_1836_1380"/>
<feBlend mode="normal" in="SourceGraphic" in2="effect1_dropShadow_1836_1380" result="shape"/>
</filter>
<filter id="filter3_d_1836_1380" x="12.5801" y="17" width="34.5195" height="54.0605" filterUnits="userSpaceOnUse" color-interpolation-filters="sRGB">
<feFlood flood-opacity="0" result="BackgroundImageFix"/>
<feColorMatrix in="SourceAlpha" type="matrix" values="0 0 0 0 0 0 0 0 0 0 0 0 0 0 0 0 0 0 127 0" result="hardAlpha"/>
<feOffset dy="2"/>
<feGaussianBlur stdDeviation="1.5"/>
<feComposite in2="hardAlpha" operator="out"/>
<feColorMatrix type="matrix" values="0 0 0 0 0 0 0 0 0 0 0 0 0 0 0 0 0 0 0.25 0"/>
<feBlend mode="normal" in2="BackgroundImageFix" result="effect1_dropShadow_1836_1380"/>
<feBlend mode="normal" in="SourceGraphic" in2="effect1_dropShadow_1836_1380" result="shape"/>
</filter>
<filter id="filter4_d_1836_1380" x="67.6841" y="60.623" width="27.5625" height="42.1543" filterUnits="userSpaceOnUse" color-interpolation-filters="sRGB">
<feFlood flood-opacity="0" result="BackgroundImageFix"/>
<feColorMatrix in="SourceAlpha" type="matrix" values="0 0 0 0 0 0 0 0 0 0 0 0 0 0 0 0 0 0 127 0" result="hardAlpha"/>
<feOffset dy="2"/>
<feGaussianBlur stdDeviation="1.5"/>
<feComposite in2="hardAlpha" operator="out"/>
<feColorMatrix type="matrix" values="0 0 0 0 0 0 0 0 0 0 0 0 0 0 0 0 0 0 0.25 0"/>
<feBlend mode="normal" in2="BackgroundImageFix" result="effect1_dropShadow_1836_1380"/>
<feBlend mode="normal" in="SourceGraphic" in2="effect1_dropShadow_1836_1380" result="shape"/>
</filter>
</defs>
</svg>

<svg width="115" height="115" fill="none" xmlns="http://www.w3.org/2000/svg"><g filter="url(#filter0_i_1836_1380)"><rect width="115" height="115" rx="15" fill="#F8F4F4"/></g><g filter="url(#filter1_d_1836_1380)"><path fill="#707070" d="M62.698 20.232h7.986v20.621h-7.986z"/></g><g filter="url(#filter2_d_1836_1380)"><path d="M51.856 87.646L4 81.698l31.218-48.776h43.47l27.934 43.64-46.72-3.985-8.046 15.069z" fill="#D22E26"/></g><path d="M106.622 76.543l-47.517-2.776 19.55-40.845 27.967 43.62z" fill="#C8102E"/><g filter="url(#filter3_d_1836_1380)"><path fill-rule="evenodd" clip-rule="evenodd" d="M30.958 18.451a.936.936 0 00-1.579-.035c-2.591 3.72-10.548 15.97-13.24 29.77-.253.92-.416 1.876-.477 2.86l-.028.207a5.756 5.756 0 00.054 1.902c.627 7.23 6.736 12.905 14.18 12.905 7.536 0 13.704-5.818 14.2-13.177a6.097 6.097 0 00.03-.765l.002-.192c0-.477-.024-.949-.07-1.414-.902-11.74-10.318-27.634-13.072-32.061z" fill="#fff"/></g><g filter="url(#filter4_d_1836_1380)"><path fill-rule="evenodd" clip-rule="evenodd" d="M82.495 62.079a.93.93 0 00-1.573-.042c-2.136 3.11-7.842 12.117-9.815 22.223a10.592 10.592 0 00-.361 2.169l-.02.153c-.068.506-.051.985.04 1.436.473 5.468 5.092 9.76 10.72 9.76 5.696 0 10.358-4.396 10.736-9.958a4.595 4.595 0 00.024-.594v-.135c0-.358-.017-.711-.052-1.06-.658-8.63-7.41-20.238-9.699-23.952z" fill="#fff"/></g><defs><filter id="filter0_i_1836_1380" x="0" y="0" width="117" height="117" filterUnits="userSpaceOnUse" color-interpolation-filters="sRGB"><feFlood flood-opacity="0" result="BackgroundImageFix"/><feBlend in="SourceGraphic" in2="BackgroundImageFix" result="shape"/><feColorMatrix in="SourceAlpha" values="0 0 0 0 0 0 0 0 0 0 0 0 0 0 0 0 0 0 127 0" result="hardAlpha"/><feOffset dx="2" dy="2"/><feGaussianBlur stdDeviation="3"/><feComposite in2="hardAlpha" operator="arithmetic" k2="-1" k3="1"/><feColorMatrix values="0 0 0 0 0 0 0 0 0 0 0 0 0 0 0 0 0 0 0.05 0"/><feBlend in2="shape" result="effect1_innerShadow_1836_1380"/></filter><filter id="filter1_d_1836_1380" x="59.698" y="19.232" width="13.986" height="26.621" filterUnits="userSpaceOnUse" color-interpolation-filters="sRGB"><feFlood flood-opacity="0" result="BackgroundImageFix"/><feColorMatrix in="SourceAlpha" values="0 0 0 0 0 0 0 0 0 0 0 0 0 0 0 0 0 0 127 0" result="hardAlpha"/><feOffset dy="2"/><feGaussianBlur stdDeviation="1.5"/><feComposite in2="hardAlpha" operator="out"/><feColorMatrix values="0 0 0 0 0 0 0 0 0 0 0 0 0 0 0 0 0 0 0.25 0"/><feBlend in2="BackgroundImageFix" result="effect1_dropShadow_1836_1380"/><feBlend in="SourceGraphic" in2="effect1_dropShadow_1836_1380" result="shape"/></filter><filter id="filter2_d_1836_1380" x="1" y="31.922" width="108.622" height="60.725" filterUnits="userSpaceOnUse" color-interpolation-filters="sRGB"><feFlood flood-opacity="0" result="BackgroundImageFix"/><feColorMatrix in="SourceAlpha" values="0 0 0 0 0 0 0 0 0 0 0 0 0 0 0 0 0 0 127 0" result="hardAlpha"/><feOffset dy="2"/><feGaussianBlur stdDeviation="1.5"/><feComposite in2="hardAlpha" operator="out"/><feColorMatrix values="0 0 0 0 0 0 0 0 0 0 0 0 0 0 0 0 0 0 0.25 0"/><feBlend in2="BackgroundImageFix" result="effect1_dropShadow_1836_1380"/><feBlend in="SourceGraphic" in2="effect1_dropShadow_1836_1380" result="shape"/></filter><filter id="filter3_d_1836_1380" x="12.58" y="17" width="34.52" height="54.06" filterUnits="userSpaceOnUse" color-interpolation-filters="sRGB"><feFlood flood-opacity="0" result="BackgroundImageFix"/><feColorMatrix in="SourceAlpha" values="0 0 0 0 0 0 0 0 0 0 0 0 0 0 0 0 0 0 127 0" result="hardAlpha"/><feOffset dy="2"/><feGaussianBlur stdDeviation="1.5"/><feComposite in2="hardAlpha" operator="out"/><feColorMatrix values="0 0 0 0 0 0 0 0 0 0 0 0 0 0 0 0 0 0 0.25 0"/><feBlend in2="BackgroundImageFix" result="effect1_dropShadow_1836_1380"/><feBlend in="SourceGraphic" in2="effect1_dropShadow_1836_1380" result="shape"/></filter><filter id="filter4_d_1836_1380" x="67.684" y="60.623" width="27.563" height="42.154" filterUnits="userSpaceOnUse" color-interpolation-filters="sRGB"><feFlood flood-opacity="0" result="BackgroundImageFix"/><feColorMatrix in="SourceAlpha" values="0 0 0 0 0 0 0 0 0 0 0 0 0 0 0 0 0 0 127 0" result="hardAlpha"/><feOffset dy="2"/><feGaussianBlur stdDeviation="1.5"/><feComposite in2="hardAlpha" operator="out"/><feColorMatrix values="0 0 0 0 0 0 0 0 0 0 0 0 0 0 0 0 0 0 0.25 0"/><feBlend in2="BackgroundImageFix" result="effect1_dropShadow_1836_1380"/><feBlend in="SourceGraphic" in2="effect1_dropShadow_1836_1380" result="shape"/></filter></defs></svg>
